X: 89
T: Zhai guozi
L: 1/16
M: 2/4
K: F
F2 F D c2 c c [I:setbarnb 1]| 
f2 f d c2 c c | 
G2 F2 F2 D2 | 
c d A GF4 | 
G G G A2< c2 D | 
F2> D2C4 | 
G G A GF4 | 
G G G A c c c D | 
F2> D2C4 |]

@@@ Tune index: 8963
